src/main/resources/images/toolWindowMybatis.svg

<svg xmlns="http://www.w3.org/2000/svg" xmlns:xlink="http://www.w3.org/1999/xlink" viewBox="0,0,256,256" width="13px" height="13px" fill-rule="nonzero"><g transform="translate(5.12,5.12) scale(0.96,0.96)"><g fill="#6e6e6e" fill-rule="nonzero" stroke="none" stroke-width="1" stroke-linecap="butt" stroke-linejoin="miter" stroke-miterlimit="10" stroke-dasharray="" stroke-dashoffset="0" font-family="none" font-weight="none" font-size="none" text-anchor="none" style="mix-blend-mode: normal"><g transform="scale(5.12,5.12)"><path d="M47.047,20.022l-3.109,-1.053c-0.383,-5.172 -2.64,-8.359 -6.753,-9.481c-4.802,-1.309 -8.428,0.211 -11.166,2.505c0.021,-1.395 -0.009,-3.112 -0.247,-3.793c-0.742,-2.119 -1.883,-2.397 -4.134,-2.497c-0.71,-0.031 -1.464,-1.144 -1.718,-1.677l-0.904,0.426l-0.906,0.425c0.131,0.279 1.338,2.732 3.44,2.825c1.959,0.086 1.994,0.188 2.334,1.159c0.097,0.286 0.139,1.306 0.137,2.498c-0.333,-0.474 -0.738,-0.958 -1.242,-1.413c-2.023,-1.828 -4.612,-1.467 -7.114,-1.117l-0.857,0.117c-1.872,0.246 -2.474,-1.274 -2.537,-1.447l-0.944,0.33l-0.947,0.321c0.38,1.123 1.846,3.146 4.686,2.78l0.876,-0.12c2.329,-0.324 4.167,-0.582 5.497,0.62c0.938,0.848 1.447,1.831 1.712,2.5c-3.295,-0.763 -6.642,-1.532 -6.642,-1.532l-1.408,-0.324l0.193,1.432c0.011,0.083 0.248,1.696 1.159,3.865c-3.296,-0.512 -5.933,-1.066 -5.973,-1.075l-1.543,-0.327l0.363,1.534c0.042,0.18 1.083,4.437 4.898,8.344c0.041,0.042 0.092,0.079 0.134,0.12c-4.318,3.021 -9.774,4.553 -9.833,4.569l-1.496,0.413l0.993,1.191c2.947,3.536 10.864,8.797 20.596,8.797c10.051,0 18.339,-7.584 19.277,-17.642c0.01,-0.111 0.014,-0.215 0.023,-0.325l2.559,-0.643l-2.375,-1.218zM36.659,11.418c0.887,0.242 2.825,0.786 4.108,3.168c-2.049,-0.058 -6.937,-0.336 -12.803,-1.603c2.315,-1.726 5.094,-2.547 8.695,-1.565zM22.489,15.828c-0.56,0.753 -1.055,1.483 -1.492,2.138c-0.727,-0.075 -1.46,-0.162 -2.186,-0.257c-0.58,-1.155 -0.962,-2.213 -1.193,-3.005c1.235,0.285 3.05,0.703 4.871,1.124zM11.783,18.592c2.185,0.415 6.111,1.103 9.719,1.435c1.739,0.161 3.333,0.99 4.059,2.115c0.527,0.815 0.601,1.788 0.221,2.892c-0.324,0.939 -1.085,1.549 -2.263,1.814c-2.424,0.541 -6.11,-0.576 -7.889,-2.398c-2.079,-2.129 -3.249,-4.4 -3.847,-5.858zM41.879,23.11c-0.842,9.023 -8.273,15.827 -17.286,15.827c-8.054,0 -14.732,-3.831 -18.009,-6.962c2.144,-0.732 6.101,-2.301 9.401,-4.747c1.816,1.096 4.113,1.758 6.18,1.758c0.625,0 1.229,-0.06 1.792,-0.187c1.847,-0.415 3.166,-1.521 3.715,-3.114c0.583,-1.69 0.433,-3.291 -0.431,-4.629c-0.947,-1.466 -2.539,-2.328 -4.056,-2.744c0.308,-0.445 0.625,-0.881 0.946,-1.31c2.232,1.474 9.11,5.514 17.757,5.981c-0.005,0.045 -0.004,0.083 -0.009,0.127zM41.889,18.979c-0.26,1.398 -1.79,2.285 -3.416,1.982c-1.626,-0.303 -2.733,-1.682 -2.473,-3.079c0.111,-0.595 0.461,-1.089 0.942,-1.446l1.421,0.631c-0.405,0.216 -0.706,0.578 -0.791,1.034c-0.158,0.848 0.481,1.678 1.428,1.855c0.947,0.176 1.842,-0.368 2,-1.216c0,-0.003 0,-0.005 0.001,-0.008c-0.09,0.167 -0.26,0.284 -0.462,0.284c-0.293,0 -0.531,-0.238 -0.531,-0.531c0,-0.25 0.177,-0.451 0.41,-0.507l1.494,0.663c-0.003,0.112 -0.001,0.225 -0.023,0.338z"></path></g></g></g></svg>

<?xml version="1.0" encoding="UTF-8" standalone="no"?>
<svg
   viewBox="0,0,256,256"
   width="13px"
   height="13px"
   fill-rule="nonzero"
   version="1.1"
   id="svg10"
   sodipodi:docname="toolWindowMybatis.svg"
   inkscape:version="1.2.2 (b0a8486541, 2022-12-01)"
   xmlns:inkscape="http://www.inkscape.org/namespaces/inkscape"
   xmlns:sodipodi="http://sodipodi.sourceforge.net/DTD/sodipodi-0.dtd"
   xmlns="http://www.w3.org/2000/svg"
   xmlns:svg="http://www.w3.org/2000/svg">
  <defs
     id="defs14" />
  <sodipodi:namedview
     id="namedview12"
     pagecolor="#ffffff"
     bordercolor="#000000"
     borderopacity="0.25"
     inkscape:showpageshadow="2"
     inkscape:pageopacity="0.0"
     inkscape:pagecheckerboard="0"
     inkscape:deskcolor="#d1d1d1"
     showgrid="false"
     inkscape:zoom="79"
     inkscape:cx="6.5"
     inkscape:cy="6.4936709"
     inkscape:window-width="3440"
     inkscape:window-height="1384"
     inkscape:window-x="0"
     inkscape:window-y="0"
     inkscape:window-maximized="1"
     inkscape:current-layer="svg10" />
  <g
     fill="#6e6e6e"
     fill-rule="nonzero"
     stroke="none"
     stroke-width="1"
     stroke-linecap="butt"
     stroke-linejoin="miter"
     stroke-miterlimit="10"
     stroke-dasharray="none"
     stroke-dashoffset="0"
     font-family="none"
     font-weight="none"
     font-size="none"
     text-anchor="none"
     style="mix-blend-mode:normal;fill:#ff091a;fill-opacity:1"
     id="g6"
     transform="matrix(0.96,0,0,0.96,5.12,5.12)">
    <g
       transform="scale(5.12)"
       id="g4"
       style="fill:#ff091a;fill-opacity:1">
      <path
         d="M 47.047,20.022 43.938,18.969 C 43.555,13.797 41.298,10.61 37.185,9.488 32.383,8.179 28.757,9.699 26.019,11.993 26.04,10.598 26.01,8.881 25.772,8.2 25.03,6.081 23.889,5.803 21.638,5.703 20.928,5.672 20.174,4.559 19.92,4.026 L 19.016,4.452 18.11,4.877 c 0.131,0.279 1.338,2.732 3.44,2.825 1.959,0.086 1.994,0.188 2.334,1.159 0.097,0.286 0.139,1.306 0.137,2.498 C 23.688,10.885 23.283,10.401 22.779,9.946 20.756,8.118 18.167,8.479 15.665,8.829 L 14.808,8.946 C 12.936,9.192 12.334,7.672 12.271,7.499 L 11.327,7.829 10.38,8.15 c 0.38,1.123 1.846,3.146 4.686,2.78 l 0.876,-0.12 c 2.329,-0.324 4.167,-0.582 5.497,0.62 0.938,0.848 1.447,1.831 1.712,2.5 -3.295,-0.763 -6.642,-1.532 -6.642,-1.532 l -1.408,-0.324 0.193,1.432 c 0.011,0.083 0.248,1.696 1.159,3.865 C 13.157,16.859 10.52,16.305 10.48,16.296 L 8.937,15.969 9.3,17.503 c 0.042,0.18 1.083,4.437 4.898,8.344 0.041,0.042 0.092,0.079 0.134,0.12 -4.318,3.021 -9.774,4.553 -9.833,4.569 l -1.496,0.413 0.993,1.191 c 2.947,3.536 10.864,8.797 20.596,8.797 10.051,0 18.339,-7.584 19.277,-17.642 0.01,-0.111 0.014,-0.215 0.023,-0.325 l 2.559,-0.643 -2.375,-1.218 z M 36.659,11.418 c 0.887,0.242 2.825,0.786 4.108,3.168 -2.049,-0.058 -6.937,-0.336 -12.803,-1.603 2.315,-1.726 5.094,-2.547 8.695,-1.565 z m -14.17,4.41 c -0.56,0.753 -1.055,1.483 -1.492,2.138 -0.727,-0.075 -1.46,-0.162 -2.186,-0.257 -0.58,-1.155 -0.962,-2.213 -1.193,-3.005 1.235,0.285 3.05,0.703 4.871,1.124 z m -10.706,2.764 c 2.185,0.415 6.111,1.103 9.719,1.435 1.739,0.161 3.333,0.99 4.059,2.115 0.527,0.815 0.601,1.788 0.221,2.892 -0.324,0.939 -1.085,1.549 -2.263,1.814 -2.424,0.541 -6.11,-0.576 -7.889,-2.398 -2.079,-2.129 -3.249,-4.4 -3.847,-5.858 z m 30.096,4.518 c -0.842,9.023 -8.273,15.827 -17.286,15.827 -8.054,0 -14.732,-3.831 -18.009,-6.962 2.144,-0.732 6.101,-2.301 9.401,-4.747 1.816,1.096 4.113,1.758 6.18,1.758 0.625,0 1.229,-0.06 1.792,-0.187 1.847,-0.415 3.166,-1.521 3.715,-3.114 0.583,-1.69 0.433,-3.291 -0.431,-4.629 -0.947,-1.466 -2.539,-2.328 -4.056,-2.744 0.308,-0.445 0.625,-0.881 0.946,-1.31 2.232,1.474 9.11,5.514 17.757,5.981 -0.005,0.045 -0.004,0.083 -0.009,0.127 z m 0.01,-4.131 c -0.26,1.398 -1.79,2.285 -3.416,1.982 C 36.847,20.658 35.74,19.279 36,17.882 c 0.111,-0.595 0.461,-1.089 0.942,-1.446 l 1.421,0.631 c -0.405,0.216 -0.706,0.578 -0.791,1.034 -0.158,0.848 0.481,1.678 1.428,1.855 0.947,0.176 1.842,-0.368 2,-1.216 0,-0.003 0,-0.005 10e-4,-0.008 -0.09,0.167 -0.26,0.284 -0.462,0.284 -0.293,0 -0.531,-0.238 -0.531,-0.531 0,-0.25 0.177,-0.451 0.41,-0.507 l 1.494,0.663 c -0.003,0.112 -10e-4,0.225 -0.023,0.338 z"
         id="path2"
         style="fill:#ff091a;fill-opacity:1" />
    </g>
  </g>
</svg>
